src/assets/images/icons/mail-logo.svg

<svg width="34" height="28" viewBox="0 0 34 28" fill="none" xmlns="http://www.w3.org/2000/svg">
<path d="M3.11109 27.3332C2.36109 27.3332 1.71063 27.0577 1.15971 26.5068C0.608794 25.9559 0.333336 25.3054 0.333336 24.5554V3.44425C0.333336 2.69425 0.608794 2.0438 1.15971 1.49288C1.71063 0.941963 2.36109 0.666504 3.11109 0.666504H30.8889C31.6389 0.666504 32.2894 0.941963 32.8403 1.49288C33.3912 2.0438 33.6667 2.69425 33.6667 3.44425V24.5554C33.6667 25.3054 33.3912 25.9559 32.8403 26.5068C32.2894 27.0577 31.6389 27.3332 30.8889 27.3332H3.11109ZM30.8889 6.08313L17.7361 14.5693C17.6157 14.6341 17.4977 14.6873 17.382 14.729C17.2662 14.7707 17.1389 14.7915 17 14.7915C16.8611 14.7915 16.7338 14.7707 16.618 14.729C16.5023 14.6873 16.3843 14.6341 16.2639 14.5693L3.11109 6.08313V24.5554H30.8889V6.08313ZM17 12.2776L30.7778 3.44425H3.25L17 12.2776ZM3.11109 6.41646V4.50488V4.53913V3.44425V4.52759V4.4953V6.41646Z" fill="#1C1B1F"/>
</svg>

<svg width="34" height="28" fill="none" xmlns="http://www.w3.org/2000/svg"><path d="M3.111 27.333c-.75 0-1.4-.275-1.951-.826-.551-.551-.827-1.202-.827-1.952V3.445c0-.75.276-1.401.827-1.952C1.71.942 2.36.667 3.11.667H30.89c.75 0 1.4.275 1.951.826.551.55.827 1.201.827 1.951v21.111c0 .75-.276 1.4-.827 1.952-.55.55-1.201.826-1.951.826H3.11zM30.89 6.083 17.736 14.57c-.12.065-.238.118-.354.16a1.12 1.12 0 0 1-.382.063 1.12 1.12 0 0 1-.382-.063 2.632 2.632 0 0 1-.354-.16L3.11 6.083v18.472H30.89V6.083zM17 12.278l13.778-8.834H3.25L17 12.278zM3.111 6.416V4.505v.034-1.095 1.084-.033 1.921z" fill="#1C1B1F"/></svg>
